app/assets/images/sharing_tags/icons/google.svg

<svg viewBox="0 0 35 34" xmlns="http://www.w3.org/2000/svg"><path class="gl-sharing-tags-icon-fill sharing-tags-icon-fill" d="M17.63 34.085c9.394 0 17.008-7.615 17.008-17.008C34.638 7.684 27.024.07 17.63.07 8.237.07.622 7.684.622 17.077S8.237 34.085 17.63 34.085"/><path class="gl-sharing-tags-icon-in sharing-tags-icon-in" d="M25.825 15.835h-2.05v-2.05h-1.65v2.05h-2.05v1.65h2.05v2.05h1.65v-2.05h2.05v-1.65zM18.16 18.32c-.475-.338-1.385-1.158-1.385-1.64 0-.565.162-.842 1.01-1.506.872-.682 1.49-1.64 1.49-2.75 0-1.326-.59-2.617-1.7-3.044h1.67l1.18-.85h-5.268c-2.36 0-4.583 1.788-4.583 3.86 0 2.117 1.61 3.827 4.012 3.827.167 0 .33-.004.488-.015-.156.298-.268.635-.268.983 0 .59.317 1.066.717 1.456-.302 0-.595.01-.912.01-2.924 0-5.176 1.862-5.176 3.794 0 1.902 2.468 3.092 5.393 3.092 3.334 0 5.176-1.89 5.176-3.794 0-1.526-.45-2.44-1.842-3.423zm-2.812-2.64c-1.357-.04-2.647-1.52-2.88-3.3-.236-1.783.675-3.146 2.032-3.106 1.356.04 2.646 1.47 2.88 3.252.234 1.782-.675 3.194-2.032 3.153zm-.532 9.015c-2.022 0-3.482-1.28-3.482-2.817 0-1.507 1.812-2.76 3.833-2.74.472.006.912.082 1.31.21 1.098.765 1.885 1.195 2.107 2.065.042.177.065.358.065.543 0 1.538-.99 2.74-3.834 2.74z"/></svg>

<?xml version="1.0" encoding="UTF-8" standalone="no"?>
<svg width="100%" height="100%" viewBox="0 0 35 34" version="1.1" xmlns="http://www.w3.org/2000/svg" xmlns:xlink="http://www.w3.org/1999/xlink">
    <path class="gl-sharing-tags-icon-fill sharing-tags-icon-fill" d="M17.63,34.085 C27.024,34.085 34.638,26.47 34.638,17.077 C34.638,7.684 27.024,0.07 17.63,0.07 C8.237,0.07 0.622,7.684 0.622,17.077 C0.622,26.47 8.237,34.085 17.63,34.085"></path>
    <path class="gl-sharing-tags-icon-in sharing-tags-icon-in" d="M25.825,15.835 L23.774,15.835 L23.774,13.784 L22.124,13.784 L22.124,15.835 L20.074,15.835 L20.074,17.485 L22.124,17.485 L22.124,19.536 L23.774,19.536 L23.774,17.485 L25.825,17.485 L25.825,15.835 L25.825,15.835 Z M18.161,18.319 C17.685,17.982 16.775,17.162 16.775,16.68 C16.775,16.115 16.937,15.838 17.786,15.174 C18.657,14.492 19.274,13.535 19.274,12.423 C19.274,11.098 18.684,9.807 17.576,9.38 L19.246,9.38 L20.425,8.529 L15.157,8.529 C12.796,8.529 10.574,10.318 10.574,12.389 C10.574,14.507 12.184,16.217 14.586,16.217 C14.753,16.217 14.915,16.213 15.074,16.202 C14.918,16.5 14.806,16.837 14.806,17.185 C14.806,17.774 15.123,18.251 15.523,18.641 C15.221,18.641 14.928,18.65 14.611,18.65 C11.686,18.65 9.434,20.512 9.434,22.444 C9.434,24.346 11.902,25.536 14.827,25.536 C18.161,25.536 20.003,23.645 20.003,21.742 C20.003,20.216 19.553,19.303 18.161,18.319 L18.161,18.319 Z M15.348,15.679 C13.991,15.639 12.701,14.161 12.467,12.38 C12.232,10.597 13.143,9.234 14.5,9.274 C15.856,9.315 17.146,10.744 17.38,12.526 C17.614,14.308 16.705,15.72 15.348,15.679 L15.348,15.679 Z M14.816,24.695 C12.794,24.695 11.334,23.416 11.334,21.878 C11.334,20.371 13.146,19.117 15.167,19.139 C15.639,19.144 16.079,19.22 16.478,19.349 C17.575,20.113 18.362,20.543 18.584,21.413 C18.626,21.59 18.649,21.771 18.649,21.956 C18.649,23.494 17.659,24.695 14.816,24.695 L14.816,24.695 Z"></path>
</svg>
